X:1
T:- # -
%%score [ 1 2 3 4 ]
L:1/8
M:4/4
K:F
V:1 treble nm="Sopran" snm=" "
V:2 treble-8 nm="Alt"
V:3 treble-8 nm="Tenor"
V:4 bass nm="Baß"
V:1
"^Christobal de Morales" z8 | z8 | z8 |"^XX.  Sancta et immaculata" z8 |"^5" z8 | z8 |"^1546" A8 | %7
w: ||||||Sanc-|
w: |||||||
 D4 A4- | A2 A2 A2 F2 |"^10" B4 A4- | A2 F2 G4- | G2 FE F2 D2 | d3 c BA B2- | B2 AG F3 G | %14
w: \-ta et|* im- ma- cu-|la- ta|* vir- gi-|* ni * * tas,|vir * * * *|* * * gi *|
w: |||||||
"^15" AB A4 G2 | A6 G2 | G6 FE | F4 G4 | z8 |"^20" z4 z2 A2 | A2 A2 B4- | B2 A2 A4 | d6 c2 | %23
w: |||ni- ~tas,||qui-|bus te lau-|* di- bus|ef- fe-|
w: |||||||||
 c4 B2 A2- |"^25" AG F4 ED | E4 D2 F2 | F2 F2 G4- | G2 F2 F2 A2- | A2 GF G2 A2- | %29
w: ram ne *||sci- ~o, qui-|bus te lau-|* di- bus ef||
w: ||||||
"^30" AB c2 B2 AG | A4 G2 A2- | AG G4 ^FE | ^F4 G4 | z8 |"^35" z8 | z8 | z2 D2 G4- | G2 F2 G2 A2 | %38
w: |\-fe- ram ne-||sci- ~o,||||qui- a|* quem cae- li|
w: |||||||||
 B3 B A4 |"^40" B4 G2 A2 | G2 c3 B B2- | B2 A2 B4- | B4 z4 | z4 A4 |"^45" B2 G2 A4 | B4 A4 | %46
w: ca- pe- re|non pot- e|rant * * *|||tu-|o gre- mi-|o con-|
w: ||||||||
 B2 cB AG G2- | G2 ^F2 G4 | z8 |"^50" z2 d4 e2 | c2 d2 G4 | z4 z2 A2- | A2 B2 G2 A2 | D3 E FD E2- | %54
w: tu- li * * * *|* * sti,||tu- o|gre- mi- o,|tu-|* o gre- mi-|\-o * * * con-|
w: ||||||||
"^55" ED D4 ^C2 | D8 | z8 | z4 A4 | B2 G2 A4 |"^60" B4 A4 | B2 cB AG G2- | GF A3 G G2- | %62
w: * tu- li- *|sti,||tu-|o gre- mi-|\-o con-|tu- li * * * *||
w: ||||||||
 G2 ^F2 G4 | z2 d4 e2 |"^65" c2 d2 G4 | z2 A4 B2 | G2 A2 D2 G2- | G2 F2 G3 F | E2 D2 G3 F | %69
w: * * sti,|tu- o|gre- mi- o|con- tu|||* * li *|
w: |||||||
"^70" ED D4 ^C2 | D8 |[M:4/4]"^Secunda pars" z8 | z4 A4- | A2 F2 G2 B2 |"^75" A4 d4 | c2 B3 A F2 | %76
w: |~sti.||Be-|* ne- dic- ta|tu, be-|ne- dic * *|
w: |||||||
 B4 A2 G2- | G2 FE F4 | E2 C2 D4 |"^80" z2 A4 F2 | G2 B2 A4- | A4 z4 | A8 | B3 A B2 A2- | %84
w: ||* ta ~tu,|be- ne-|dic- ta tu||in|mu- li- e *|
w: ||||||||
"^85" AG G4 F2 | G8 | z8 | z4 G4 | A6 G2 |"^90" F4 E4 | D3 E FG A2- | AG G2 z2 F2 | G6 F2 | E4 D4 | %94
w: * * * ri-|~bus,||~in|mu- li-|\-e~- ri-|bus * * * *|* * * in|mu- li-|e- *|
w: ||||||||||
"^95" C3 D EF E2- | ED D4 ^C2 | D8 | z2 A2 G2 F2 | B6 AG |"^100" A4 F4 | G2 B2 A2 G2- | %101
w: |* * * ri-|~bus,|et be- ne-|dic- * *|tus fruc-|tus ven- tris tu-|
w: |||||||
 G2 FE FD d2- | dcBA B2 A2 | B2 A3 G G2- |"^105" G2 ^F2 G4 | z8 | z8 | z8 | z2 D2 G4- | %109
w: |||* * i,||||qui- a|
w: ||||||||
"^110" G2 F2 G2 A2 | B3 B A4 | B4 G2 A2 | G2 c3 B B2- | B2 A2 B4- |"^115" B4 z4 | z4 A4 | %116
w: * quem cae- li|ca- pe- re|non pot- e-|~rant * * *||||
w: ||||||tu-|
 B2 G2 A4 | B4 A4 | B2 cB AG G2- |"^120" G2 ^F2 G4 | z8 | z2 d4 e2 | c2 d2 G4 | z4 z2 A2- | %124
w: |||* * sti,||tu- o|gre- mi~- ~o,|tu-|
w: o gre- mi-|o con-|tu- li * * * *||||||
"^125" A2 B2 G2 A2 | D3 E FD E2- | ED D4 ^C2 | D8 | z8 |"^130" z4 A4 | B2 G2 A4 | B4 A4 | %132
w: * o gre- mi-|\-o * * * con-|* tu- li- *|sti,||tu-|o gre- mi-|\-o con-|
w: ||||||||
 B2 cB AG G2- | GF A3 G G2- |"^135" G2 ^F2 G4 | z2 d4 e2 | c2 d2 G4 | z2 A4 B2 | G2 A2 D2 d2- | %139
w: tu- li * * * *||* * sti,|tu- o|gre- mi- ~o,|tu- o|gre- mi- o con-|
w: |||||||
"^140" dc B3 A G2- | G2 ^FE F4- | F8 |] %142
w: * tu- li- * *|* * * sti.||
w: |||
V:2
 z8 | z8 | z8 | z8 | d8 | G4 d4- | d2 d2 c2 c2 | B4 A4 | d4 c2 d2- | d2 e2 f2 d2- | dc A2 B4 | %11
w: ||||Sanc-|ta et|* im- ma- cu-|\-la- ta|vir- gi *||* * * ni-|
w: |||||||||||
 A6 F2 | F2 B4 G2 | B4 A4- | A4 z2 d2 | d2 d2 _e4- | e2 d2 d4 | z2 d4 cB | c2 F4 f2- | %19
w: tas, vir-|gi * *|\-ni- ~tas,|* qui-|bus te lau-|* di- bus|ef- * *|fe- ram ne-|
w: ||||||||
 f2 ed ed f2- | fe c2 e2 d2 | d6 c2 | d3 e f2 e2- | e2 f2 d4- | d4 z2 A2 | A2 A2 B3 A | A2 d4 cB | %27
w: ||||* sci- ~o,|* qui-|bus te lau- di-|bus ef- * *|
w: ||||||||
 c2 d3 e f2 | d8 | c4 z2 f2 | f2 f2 e2 e2 | d4 z2 d2 | c2 d3 cBA | B2 c2 B4 | A2 G2 A4- | %35
w: fe- ram * ne-|sci-|~o, ef-|\-fe- ram ne- sci-|o, qui-|a ~quem * * *|cae- li ca-|* pe- re|
w: ||||||||
 A2 B2 cd e2- | ed d4 c2 | d8- | d8 | z2 G2 d4- | d2 c2 d2 e2 | f3 e dc d2- | dc B2 A2 G2 | %43
w: * non ~pot * *|* * * e-|rant,||qui- a|* quem cae- li|ca- pe- re * *|* * non pot- e-|
w: ||||||||
 A4 z2 d2- | d2 e2 c2 d2 | G2 g4 f2 | g3 f e2 dc | d4 z4 | A4 B2 G2 | A2 D4 G2- | GA B2 _EFGA | %51
w: rant tu-|* o gre- mi-|o con- tu-|li- * * * *|sti,|tu- o gre-|mi- o con-|* * * tu * * *|
w: ||||||||
 Bc B4 AG | A2 G2 d3 c | B2 AG AB c2 | A2 G2 z2 A2- | A2 B2 G2 A2 | D2 G4 F2 | G4 D2 d2- | %58
w: * * li * *|* sti, con *|* tu * * * *|li- sti, tu-|* o gre- mi-|o con- tu-|li- sti, tu-|
w: |||||||
 d2 e2 c2 d2 | G2 g4 f2 | g3 f e2 dc | d4 z4 | A4 B2 G2 | A2 D2 d2 c2 | e2 d3 c c2 | d8- | d4 z4 | %67
w: * o gre- mi-|\-o con- tu-|li * * * *|sti,|tu- o gre-|mi- o con *|\-tu- li- * *|sti,||
w: |||||||||
 z2 d4 e2 | c2 d2 G2 c2- | cBAG A4 | A8 |[M:4/4] z8 | z8 | z8 | z8 | z4 d4- | d2 B2 c2 e2 | %77
w: tu- o|gre- mi- o con-|* * tu * li-|~sti.|||||Be-|* ne- dic- ta|
w: ||||||||||
 d4 z2 d2 | cBAG A4- | A2 d2 c2 d2- | d2 e2 f4- | f4 d4 | e4 z2 e2 | f6 e2 | d4 c4 | d2 GA Bcde | %86
w: tu, be-|\-ne * * * dic-|||* ta|tu in|mu- li-|e- ri-|bus, in * * * * *|
w: |||||||||
 f3 e f2 e2- | ed d4 c2 | d2 cB A2 c2- | cB B4 A2 | B2 f2 f2 e2 | d4 d2 d2- | d2 cB cG B2- | %93
w: mu- li- e- *|||* * * ri-|bus, in mu- li-|e- ri- bus||
w: |||||||
 BA A2 D3 E | FGAB c2 B2 |"^_____" A4 z2 A2 | G2 F2 B4 | A3 B c2 d2- | d2 e2 f4 | c4 d4 | B4 e4 | %101
w: ||||||||
w: ||* et|be- ne- dic-|tus, * * fruc-|* tus ven-|tris tu-||
 d8- | d8 | z2 A2 d4 | c2 d3 cBA | B2 c2 B4 | A2 G2 A4- | A2 B2 cd e2- | ed d4 c2 | d8- | d8 | %111
w: ||qui- a|quem cae- * * *|* li ca-|* pe- re|* non pot * *|* * * e-|rant,||
w: i,||||||||||
 z2 G2 d4- | d2 c2 d2 e2 | f3 e dc d2- | dc B2 A2 G2 | A4 z2 d2- | d2 _e2 c2 d2 | G2 g4 f2 | %118
w: qui- a|* quem cae- li|ca- pe- re * *|* * non pot- e-|rant tu-|* o gre- mi-|o con- tu-|
w: |||||||
 g3 f e2 dc | d4 z4 | A4 B2 G2 | A2 D4 G2- | GA B2 _EFGA | Bc B4 AG | A2 G2 d3 c | B2 AG AB c2 | %126
w: li * * * *|\-sti,|tu- o gre-|mi- o con-|* * * tu * * *|* * li- * *|* sti, con- *|* tu * * * *|
w: ||||||||
 A2 G2 z2 A2- | A2 B2 G2 A2 | D2 G4 F2 | G4 D2 d2- | d2 e2 c2 d2 | G2 g4 f2 | g3 f e2 dc | d4 z4 | %134
w: li- sti, tu-|* o gre- mi-|o con- tu-|li- sti, tu-|* o gre- mi-|\-o con- tu-|li- * * * *|sti,|
w: ||||||||
 A4 B2 G2 | A2 D2 d2 c2 | e2 d3 c c2 | d8- | d8- | d8- | d8- | d8 |] %142
w: tu- o gre-|mi- o con *|\-tu- li- * *|sti.|||||
w: ||||||||
V:3
 A8 | D4 A4- | A2 A2 A2 F2 | B4 A3 G | A2 B2 A2 B2- | BA G4 FE | F3 G AB A2- | A2 G4 FE | %8
w: Sanc-|ta et|* im- ma- cu-|la- * *|ta vir- gi- ni||||
 F3 G A2 B2 | G4 A4 | D8 | z4 d4- | d4 G4 | d6 d2 | c2 c2 B4 | A4 c4- | c2 B4 AG | A2 A2 G4 | %18
w: * * tas, vir-|gi- ni-|~tas,|sanc-|* ta|et im-|ma- cu- la-|ta vir-|* gi- * *|* ni- tas,|
 z2 A2 A2 A2 | B6 A2 | A4 G4- | G2 FE FG A2- | A2 G2 A4- | A2 F2 G2 FE | D2 d4 cB | c4 d4- | %26
w: qui- bus te|lau- di-|bus ef-||* * fe-|* ram ne * *|* sci- * *|* o,|
 d4 z4 | z2 A2 A2 A2 | B6 A2 | A4 d4- | d2 c2 c4 | B4 A4- | A4 G4 | z2 A2 d4- | d2 c2 d3 d | %35
w: |qui- bus te|lau- di-|bus ef-|* fe- ram|ne- sci-|* ~o,|qui- a|* quem cae- li|
 c2 B2 A2 B2- | BAGF G4 | A4 G2 F2 | G4 D2 d2- | dcBA B2 A2 | B2 F2 B4 | c4 B3 A | Bc d4 c2 | d8 | %44
w: ca- pe- re non||pot- e *|* rant, ca-|* * * * * pe-|re non pot-|e- * *||rant|
 z4 z2 d2- | d2 _e2 c2 d2 | G2 c4 B2 | A4 G4 | z2 d4 e2 | c2 d2 G4 | z2 d2 _e2 c2 | d4 G2 c2- | %52
w: tu-|* o gre- mi-|o con- tu-|li- ~sti,|tu- o|gre- mi- ~o,|tu- o gre-|mi- o con-|
 c2 BA B2 A2 | G2 F4 E2 | F2 D2 E4 | D4 z4 | z4 A4 | B2 G2 A2 D2 | G4 z2 d2- | d2 e2 c2 d2 | %60
w: * tu * li *|||sti,|tu-|o gre \- mi-|~o, tu-|* o gre- mi-|
 G2 c4 B2 | A2 F2 G4 | z2 d4 e2 | c2 d2 G4- | G4 z2 G2 | A2 F4 G2- | G2 F2 B4 | A4 G4 | %68
w: o con- tu-|li- * sti,|tu- o|gre- mi- ~o,|* tu-|o gre- *|* * mi-|* o|
 z2 F2 E2 G2- | G2 F2 E4 | D8 |[M:4/4] A6 F2 | G2 B2 A2 d2- | dc A2 B2 G2- | G2 FE F2 G2 | %75
w: con * tu-|* * li-|~sti.|Be- ne-|dic- ta tu, be|* * * * ne||
 A2 G2 B3 A | G4 F2 c2 | B2 AG A2 D2 | G6 FE | F3 G A2 B2 | G4 F3 G | ABcA Bc d2- | dc c2 d2 A2 | %83
w: * * dic *||* ta * tu, be-|\-ne- * *|* * * dic-|||* * * tu in|
 d6 c2 | B4 A4 | G4 z2 B2 | c6 B2 | A4 G4 | F4 z4 | z4 c4 | d6 c2 | B4 A4 | G4 z4 | z4 G4 | A6 G2 | %95
w: mu- li-|e- ri-|bus, in|mu- li-|e- ri-|\-bus,|in|mu- li-|e- ri-|bus,|in|mu- li-|
 F4 E4 | D4 z2 G2- | G2 F2 G2 A2 | B4 c4 | z2 A4 B2- | B2 G2 c4 | B2 AG A2 B2- | BA G4 F2 | %103
w: \-e- ri-|~bus, et|* be- * ne-|dic- tus|fruc- tus|* ven- tris|tu- * * * *||
 G2 F2 B4 | A4 G4 | z2 A2 d4- | d2 c2 d3 d | c2 B2 A2 B2- | BAGF G4 | A4 G2 F2 | G4 D2 d2- | %111
w: |* ~i,|qui- a|* quem cae- li|ca- pe- re non||pot- e *|* rant, ca-|
 dcBA B2 A2 | B2 F2 B4 | c4 B3 A | Bc d4 c2 | d8 | z4 z2 d2- | d2 _e2 c2 d2 | G2 c4 B2 | A4 G4 | %120
w: * * * * * pe-|re non pot-|\-e- * *||rant|tu-|* o gre- mi-|o con- tu-|\-li- sti,|
 z2 d4 e2 | c2 d2 G4 | z2 d2 _e2 c2 | d4 G2 c2- | c2 BA B2 A2 | G2 F4 E2 | F2 D2 E4 | D4 z4 | %128
w: tu- o|gre- mi- ~o,|tu- o gre-|mi- o con-|* tu \-~ li *|||sti,|
 z4 A4 | B2 G2 A2 D2 | G4 z2 d2- | d2 e2 c2 d2 | G2 c4 B2 | A2 F2 G4 | z2 d4 e2 | c2 d2 G4- | %136
w: tu-|o gre- * mi-|~o, tu-|* o gre- mi-|o con- tu-|li- * sti,|tu- o|gre- mi- ~o,|
 G4 z2 G2 | A2 F4 G2- | G2 F2 B4- | B2 G2 B4 | A8- | A8 |] %142
w: * tu-|o gre- mi-|* o con-|* tu- li-|~sti.||
V:4
 z8 | z8 | D,8 | G,,4 D,4- | D,2 D,2 D,2 B,,2 | _E,4 D,4- | D,2 D,2 F,4 | G,4 D,4- | D,4 z4 | %9
w: ||Sanc-|ta et|* im- ma- cu-|la- ta|* vir- gi-|\-ni- ~tas,||
 z4 D,4- | D,4 G,,4 | D,6 D,2 | D,2 B,,2 _E,4 | D,6 D,2 | F,4 G,4 | D,4 z4 | z4 z2 D,2 | %17
w: sanc-|* ta|et im-|ma- cu- la-|\-ta vir-|gi- ni-|tas,|qui-|
 D,2 D,2 E,4- | E,2 D,2 D,4 | G,6 F,2 | F,4 G,2 G,,A,, | %21
w: bus te lau-|* di- bus|ef- *|fe- ram ~ne *|
 B,,"^© Michael Wendel 2005\nThis edition may be freely duplicated, distributed, performed or recorded for non-profit performance or use.\n"C, D,3 C, A,,2 | %22
w: |
 B,,4 A,,4 | z8 | z8 | z4 z2 D,2 | D,2 D,2 E,4- | E,2 D,2 D,4 | G,6 F,2 | F,4 G,2 D,2- | %30
w: sci- ~o,|||qui-|bus te lau-|* di- bus|ef- *|fe- ram ne-|
 D,E, F,2 C,4 | D,8 | z2 D,2 G,4- | G,2 F,2 G,3 G, | F,2 E,2 D,3 E, | F,2 G,2 F,2 G,2- | %36
w: * * * sci-|~o,|qui- a|* quem cae- li|ca- pe- re *|* non pot- *|
 G,F,E,D, E,2 E,2 | D,4 z4 | z4 z2 D,2 | G,6 F,2 | G,2 A,2 B,2 G,2 | F,4 G,4- | G,4 F,2 E,2 | D,8 | %44
w: * * * * * e-|rant,|qui-|a quem|cae- li ca- pe-|re non|* pot- e-|rant|
 z8 | z8 | z8 | D,4 _E,2 C,2- | C,2 D,2 G,,2 C,2- | C,2 B,,A,, B,,2 C,2- | C,2 B,,2 C,4 | %51
w: |||tu- o gre-|* mi- o con-|* tu * li- *|* * sti,|
 G,,2 G,4 F,E, | F,2 G,4 F,2 | G,2 D,4 C,2 | D,2 B,,2 A,,4 | z4 z2 D,2- | D,2 E,2 C,2 D,2 | %57
w: tu- o * *|* gre- mi-|\-o con- tu-|li- * ~sti,|tu-|* o gre- mi-|
 G,,4 z4 | z8 | z8 | z8 | D,4 E,2 C,2- | C,2 D,2 G,,2 C,2- | C,2 B,,A,, B,,2 C,2- | C,2 B,,2 E,4 | %65
w: ~o,||||tu- o gre-|* mi- o con-|* tu * li *||
 D,4 z4 | z2 D,4 _E,2 | C,2 D,2 G,,2 C,2- | C,2 B,,2 C,4- | C,2 D,2 A,,4 | D,8 |[M:4/4] z8 | z8 | %73
w: sti,|tu- o|gre- mi- o con-|* tu- li||~sti.|||
 z8 | D,6 B,,2 | C,2 _E,2 D,4 | z8 | D,6 B,,2 | C,2 _E,2 D,4- | D,4 z4 | z4 z2 A,2- | %81
w: |Be- ne-|dic- ta tu,||be- ne-|\-dic- ta tu,||be-|
 A,2 F,2 G,2 B,2 | A,4 z4 | z8 | z8 | z4 G,4 | A,6 G,2 | F,4 E,4 | D,2 F,2 F,2 E,2 | D,4 C,4 | %90
w: * ne- dic- ta|tu|||in|mu- li-|e- ri-|\-bus, in mu- li-|\-e~~- ri-|
 B,,4 z4 | z4 D,4 | E,6 D,2 | C,4 B,,4 | A,,4 z4 | z4 A,,4 | B,,4 G,,4 | D,3 D, E,2 D,2 | %98
w: bus,|in|mu- li-|e- ri|\-bus,|et|be- ne-|dic- tus fruc- tus|
 G,4 F,4- | F,4 D,4 | E,4 C,4 | D,6 G,,2 | G,,4 z4 | z8 | z2 D,2 G,4- | G,2 F,2 G,3 G, | %106
w: ven- tris|* tu-|||\-i,||qui- a|* quem cae- li|
 F,2 E,2 D,3 E, | F,2 G,2 F,2 G,2- | G,F,E,D, E,2 E,2 | D,4 z4 | z4 z2 D,2 | G,6 F,2 | %112
w: ca- pe- re *|* non pot- *|* * * * * e-|rant,|qui-|a quem|
 G,2 A,2 B,2 G,2 | F,4 G,4- | G,4 F,2 E,2 | D,8 | z8 | z8 | z8 | D,4 _E,2 C,2- | %120
w: cae- li ca- pe-|\-re non|* pot- e-|rant,||||tu- o gre-|
 C,2 D,2 G,,2 C,2- | C,2 B,,A,, B,,2 C,2- | C,2 B,,2 C,4 | G,,2 G,4 F,E, | F,2 G,4 F,2 | %125
w: * mi- o con-|* tu \-~ li *|* * sti,|tu- o * *|* gre- mi-|
 G,2 D,4 C,2 | D,2 B,,2 A,,4 | z4 z2 D,2- | D,2 E,2 C,2 D,2 | G,,4 z4 | z8 | z8 | z8 | %133
w: \-o con- tu-|li- * sti,|tu-|* o gre- mi-|~o,||||
 D,4 E,2 C,2- | C,2 D,2 G,,2 C,2- | C,2 B,,A,, B,,2 C,2- | C,2 B,,2 _E,4 | D,4 z4 | z4 G,,4- | %139
w: tu- o gre-|* mi- o con-|* ~~~tu~~~- * li *||sti,|con-|
 G,,2 G,,2 G,,4 | D,8- | D,8 |] %142
w: * tu- li-|~sti.||

